src/assets/Outlined/D2Outlined.svg

<svg width="918" height="330" viewBox="0 0 918 330" fill="none" xmlns="http://www.w3.org/2000/svg">
<path fill-rule="evenodd" clip-rule="evenodd" d="M497.571 31.4599C273.569 -20.6503 93.7541 41.5043 34.5004 80.1797C31.0318 82.4437 29.7645 81.6483 27.5004 78.1797C123.226 17.6756 331.5 -25.3201 501.286 16.9236L501.596 16.9959L501.899 17.0943C734.144 92.4895 852.74 191.199 883.88 232.867C888.546 237.96 895.502 246.67 901.938 256.996C908.459 267.459 914.773 280.1 917.349 292.646C919.009 300.727 916.733 307.644 911.844 312.878C907.304 317.739 900.891 320.772 894.574 322.737C881.918 326.675 866.422 327.295 856.068 326.76C554.5 308.79 198 314.68 5.50041 329.18C1.36574 329.428 1.5 329.68 0 329.18C1 328.18 1.5 328.18 5.5005 327.18C295 296.18 571.799 305.725 856.621 311.768L856.739 311.774C866.204 312.274 879.788 311.628 890.118 308.415C895.318 306.797 898.893 304.769 900.882 302.639C902.523 300.883 903.317 298.881 902.656 295.663C900.591 285.611 895.304 274.711 889.208 264.93C883.154 255.217 876.626 247.117 872.589 242.749L872.314 242.451L872.073 242.126C843.874 204.108 728.599 106.513 497.571 31.4599Z" fill="white"/>
</svg>

<svg xmlns="http://www.w3.org/2000/svg" width="918" height="330" fill="none"><path fill="#fff" fill-rule="evenodd" d="M497.571 31.46C273.569-20.65 93.754 41.504 34.501 80.18c-3.47 2.264-4.736 1.468-7-2C123.225 17.676 331.5-25.32 501.285 16.924l.31.072.303.098C734.144 92.49 852.74 191.2 883.88 232.867c4.666 5.093 11.622 13.803 18.058 24.129 6.521 10.463 12.835 23.104 15.411 35.65 1.66 8.081-.616 14.998-5.505 20.232-4.54 4.861-10.953 7.894-17.27 9.859-12.656 3.938-28.152 4.558-38.506 4.023C554.5 308.79 198 314.68 5.5 329.18c-4.134.248-4 .5-5.5 0 1-1 1.5-1 5.5-2 289.5-31 566.299-21.455 851.121-15.412l.118.006c9.465.5 23.049-.146 33.379-3.359 5.2-1.618 8.775-3.646 10.764-5.776 1.641-1.756 2.435-3.758 1.774-6.976-2.065-10.052-7.352-20.952-13.448-30.733-6.054-9.713-12.582-17.813-16.619-22.181l-.275-.298-.241-.325C843.874 204.108 728.599 106.513 497.571 31.46Z" clip-rule="evenodd"/></svg>
